X:765
T:The Twelve Days of Christmas
C:Traditional carol, arr. Colin Hume
%%stretchstaff 0
L:1/4
M:2/2
S:Colin Hume's website,  colinhume.com  - chords can also be printed below the stave.
Q:1/2=110
K:G
P:Intro
c | "G"d2 "C"ec | "G"BG "D7"A2 | "G"G2- "C"G2- | "G"G2 ||
P:1
"D7"DD | "G"D2 GG | "Em"G2 FG | "Am"AB "D7"cA | "G"B3 "D7"c |\
| "G"d2 "C"ec | "G"BG "D7"A2 | "G"G2- "C"G2- | "G"G2 ||
P:2
"D7"DD | "G"DG GG | "Em"G2 FG | "Am"AB "D7"cA | "G"B4 |\
"D7"d2 AB | "D7"c2 Bc | "G"d2 "C"ec | "G"BG "D7"A2 | "G"G2- "C"G2- | "G"G2 ||
P:3
"D7"DD | "G"D2 GG | "Em"G2 FG | "Am"AB "D7"cA | "G"B4 |\
[M:3/2]\
%%MIDI gchord fzczfzczfzcz
"D7"d2 AB c2 | [M:2/2]"D7"d2 AB | "D7"c2 Bc |\
"G"d2 "C"ec | "G"BG "D7"A2 | "G"G2- "C"G2- | "G"G2 ||
P:4
"D7"DD | "G"D2 GG | "Em"G2 FG | "Am"AB "D7"cA | "G"B4 |\
[M:3/2]\
%%MIDI gchord fzczfzczfzcz
"D7"d2 AB c2 | "D7"d2 AB c2 | [M:2/2] "D7"d2 AB | "D7"c2 Bc |\
"G"d2 "C"ec | "G"BG "D7"A2 | "G"G2- "C"G2- | "G"G2 ||
P:5
"D7"DD | "G"D2 GG | "Em"G2 FG | "Am"AB "D7"cA | "G"B4 | "Bm"d4 | "A7"e2 ^c2 |\
[M:3/2]\
%%MIDI gchord fzczfzczfzcz
"D7"d6 |
"G"dc BA G2 | "C"c2 E2 G2 | [M:2/2] "A7"AG FE | "D7"D2 Bc |\
"G"d2 "C"ec | "G"BG "D7"A2 | "G"G2- "C"G2- | "G"G2 ||
P:6-12
"D7"DD | "G"D2 GG | "Em"G2 FG | "Am"AB "D7"cA | "G"B4 |: [M:3/2]\
%%MIDI gchord fzczfzczfzcz
"^AS REQUIRED" "D7"d2 AB cA :| [M:2/2] "Bm"d4 | "A7"e2 ^c2 |\
[M:3/2]\
%%MIDI gchord fzczfzczfzcz
"D7"d6 |
"G"dc BA G2 | "C"c2 E2 G2 | [M:2/2] "A7"AG FE | "D7"D2 Bc |\
"G"d2 "C"ec | "G"BG "D7"A2 | "G"G2- "C"G2- | "G"G2 |]

